!!!COM: Joplin, Scott
!!!CDT: 1868/11/24/-1917/04/01/
!!!OTL: Fig Leaf Rag
!!!ODT: 1908///
**kern	**kern	**dynam
*staff2	*staff1	*staff1/2
*Ipiano	*Ipiano	*Ipiano
*>[I,A,A1,A,A2,B,B1,B,B2,C,D,D1,D,D2,E,E1,E,E2]	*>[I,A,A1,A,A2,B,B1,B,B2,C,D,D1,D,D2,E,E1,E,E2]	*>[I,A,A1,A,A2,B,B1,B,B2,C,D,D1,D,D2,E,E1,E,E2]
*>I	*>I	*>I
*clefF4	*clefG2	*clefG2
*k[b-e-]	*k[b-e-]	*k[b-e-]
*M2/4	*M2/4	*M2/4
*MM100	*MM100	*MM100
=1-	=1-	=1-
(16GLL	(16gLL	mf
16G-	16g-	.
16F	16f	.
[16B-JJ	[16b-JJ	.
16B-LL]	16b-LL]	.
16AJ	16aJ	.
8B-J)	8b-J)	.
=2	=2	=2
(16cLL	(16ccLL	.
16c-	16cc-	.
16B-)	16b-)	.
([16dJJ	([16ddJJ	.
16dLL]	16ddLL]	.
16c#J	16cc#J	.
8dJ)	8ddJ)	.
=3	=3	=3
(16fLL	(16ffLL	.
16c#	16cc#	.
16d	16dd	.
16AJJ)	16aJJ)	.
16B-LK	16b-LK	.
8G	8g	.
16G-Jk	16g-Jk	.
=4	=4	=4
8F	8f	.
8r	8r	.
4FF^ 4F^	4f^ 4a^ 4cc^ 4ff^	.
=5!|:	=5!|:	=5!|:
*>A	*>A	*>A
8BB- 8B-L	(16fLL	mf
.	16b-	.
8F 8B- 8dJ	16dd	.
.	[16ffJJ	.
8DL	16ffLL])	.
.	(16b-	.
8F 8B- 8dJ	16cc	.
.	16ddJJ)	.
=6	=6	=6
8E-L	(16aLL	.
.	16b-	.
8G 8B- 8e-J	16g	.
.	[16fJJ	.
8D (8dL	16fLL]	.
.	16f#	.
8D- 8d-J)	16g	.
.	16g#JJ)	.
=7	=7	=7
*	*^	*
8C 8cL	(16aLL	8.aL	.
.	16cc	.	.
8F 8A 8e-J	16ee-	.	.
.	[16ggJJ	[16a [16ee-Jk	.
8FFL	16ggLL]	4a] 4ee-]	.
.	16gg-J	.	.
8F 8A 8e-J	8ffJ)	.	.
=8	=8	=8	=8
8BB- 8B-L	16b-LL	(8.b-L	.
.	16dd	.	.
8F 8B- 8dJ	16ff	.	.
.	[16ggJJ	[16b- [16ddJk	.
8FF 8FL	16ggLL]	4b-] 4dd]	.
.	16gg-J	.	.
8F 8B- 8dJ	8ffJ)	.	.
*	*v	*v	*
=9	=9	=9
8BB-L	(16fLL	.
.	16b-	.
8F 8B- 8dJ	16dd	.
.	[16ffJJ	.
8DL	16ffLL])	.
.	16b-	.
8F 8B- 8dJ	16cc	.
.	16ddJJ	.
=10	=10	=10
*	*^	*
8E-L	16aLL	4r	.
.	16b-	.	.
8G 8B- 8e-J	16g	.	.
.	[16fJJ	.	.
8D (8dL	16fLL	8fL]	<
.	16g	.	.
8BBn 8BnJ)	16g#	8fJ	.
.	16ddJJ	.	.
=11	=11	=11	=11
8C 8cL	(16aLL	8.fL	<
.	16cc	.	.
8A 8cJ	16ff	.	.
.	16ddJJ	16b-Jk	.
8CL	16ddLL	4b-	.
.	16gg	.	.
8B- 8c 8enJ	16cc	.	.
.	16aaJJ)	.	.
*	*v	*v	*
=12	=12	=12
8F 8A 8c 8f	8cc 8ffL	.
8r	(16ee-L	>
.	16ccJJ	.
4F 4A 4c 4e-	16aLL	.
.	16a-	.
.	16g	.
.	16g-JJ)	.
=13	=13	=13
8BB- 8B-L	(16fLL	mf
.	16b-	.
8F 8B- 8dJ	16dd	.
.	[16ffJJ	.
8DL	16ffLL])	.
.	(16b-	.
8F 8B- 8dJ	16cc	.
.	16ddJJ)	.
=14	=14	=14
8E-L	(16aLL	.
.	16b-	.
8G 8B- 8e-J	16g	.
.	[16fJJ	.
8D (8dL	16fLL]	.
.	16f#	.
8D- 8d-J)	16g	.
.	16g#JJ)	.
=15	=15	=15
*	*^	*
8C 8cL	16aLL	(8.aL	.
.	16cc	.	.
8F 8A 8e-J	16ee-	.	.
.	[16ggJJ	[16a [16ee-Jk	.
8FFL	16ggLL]	4a] 4ee-]	.
.	16gg-J	.	.
8F 8A 8e-J	8ffJ)	.	.
=16	=16	=16	=16
8BB- 8B-L	16b-LL	(8.b-L	.
.	16dd	.	.
8F 8B- 8dJ	16ff	.	.
.	[16ggJJ	[16b- [16ddJk	.
8BB- 8B-L	16ggLL]	8b-] 8ddL]	<
.	16gg-J	.	.
8BBn 8BnJ	8ffJ)	8a- 8ddJ	.
=17	=17	=17	=17
8C 8cL	16ffLK	8.g 8.ccL	f
.	8ee-	.	.
8G 8c 8e-J	.	.	.
.	[16cccJk	[16cc [16ee- [16ggJk	.
8EE- 8E-L	8cccL]	4cc] 4ee-] 4gg]	.
8GG- 8G-J	8ee- 8bb- 8eee-J	.	.
=18	=18	=18	=18
8FF 8FL	4r	16dd 16bb- 16dddLK	.
.	.	8b- 8dd 8bb-	.
8F 8B- 8dJ	.	.	.
.	.	[16g [16bn 16ggJk	.
8GG 8GL	16ggLL	8g] 8bL]	.
.	16ffJ	.	.
8G 8BnJ	8ddJ	8f 8bJ	.
=19	=19	=19	=19
8CL	16ddLK	8.en 8.b-L	.
.	8cc	.	.
8G 8B- 8cJ	.	.	.
.	[16ffJk	[16f [16aJk	.
8FFL	16ffLL]	8f] 8aL]	.
.	16ddJ	.	.
8F 8AJ	8ccJ	8e- 8aJ	.
*	*v	*v	*
=20	=20	=20
*>A1	*>A1	*>A1
*^	*	*
(4B-	16BB-LL	(4d 4b-	>
.	16D	.	.
.	16E-	.	.
.	&(16EnJJ&)	.	.
4F	(16FLL)	4e-) 4f	.
.	16F#	.	.
.	16G	.	.
.	16AJJ)	.	.
*v	*v	*	*
=21:|!	=21:|!	=21:|!
*>A2	*>A2	*>A2
8BB- 8B-L	4.d 4.b-	.
8FJ	.	.
8BB-	.	.
8r	8f 8ff	.
=22!|:	=22!|:	=22!|:
*>B	*>B	*>B
8C 8cL	16ff (16aaLL	f
.	16gg 16bb-	.
8F 8A 8e-J	16aa 16ccc	.
.	16ff 16aaJJ)	.
8FFL	16cc 16ee-LK	.
.	8ee- 8gg	.
8F 8A 8e-J	.	.
.	[16dd ([16ffJk	.
=23	=23	=23
8BB-L	16dd] 16ffLL]	.
.	16cc# 16een	.
8F 8B- 8dJ	16dd 16ff	.
.	[16b- [16ddJJ	.
8FFL	8b-] 8ddL])	.
8F 8B- 8dJ	8fJ	.
=24	=24	=24
*	*^	*
8FFL	16a (16ccLL	4r	.
.	16b- 16dd	.	.
8F 8A 8e-J	16cc 16ee-	.	.
.	16a 16ccJJ)	.	.
8FFL	8.e-L	16gLK	.
.	.	8a	.
8F 8AJ	.	.	.
.	([16c#Jk	16gJk	.
*	*v	*v	*
=25	=25	=25
(16BB-LL	4c#] 4g	.
16C#	.	.
16En	.	.
16GJJ	.	.
8B-)	8d) 8fL	.
8r	8f 8ffJ	.
=26	=26	=26
8CL	16ff (16aaLL	.
.	16gg 16bb-	.
8F 8A 8e-J	16aa 16ccc	.
.	16ff 16aaJJ)	.
8FFL	16cc 16ee-LK	.
.	8ee- 8gg	.
8F 8A 8e-J	.	.
.	[16dd ([16ffJk	.
=27	=27	=27
8BB-L	16dd] 16ffLL]	.
.	16cc# 16een	.
8F 8B- 8dJ	16dd 16ff	.
.	[16b- [16ddJJ	.
8fL	16b-] 16ddLL])	.
.	(16bb-	.
8e-J	16ccc	.
.	16ccc#JJ)	.
*clefG2	*	*
=28	=28	=28
4d 4f# 4a 4cc	(16dddLL	.
.	16eeen	.
.	16fff#	.
.	16dddJJ	.
8a 8cc 8dd 8ff#L	16cccLL	.
.	16bb-	.
8cc 8dd 8ff# 8aaJ	16aa	.
.	16dddJJ	.
=29	=29	=29
8b- 8dd 8ggL	8ggL)	.
*clefF4	*	*
16GG (16GL	16g (16ggL	.
16GG- 16G-JJ	16g- 16gg-JJ	.
8FF 8F)	8f 8ffL)	.
8r	8ffJ	.
=30	=30	=30
8C 8cL	16ff (16aaLL	.
.	16gg 16bb-	.
8F 8A 8e-J	16aa 16ccc	.
.	16ff 16aaJJ)	.
8FFL	16cc 16ee-LK	.
.	8ee- 8gg	.
8F 8A 8e-J	.	.
.	[16dd ([16ffJk	.
=31	=31	=31
8BB-L	16dd] 16ffLL]	.
.	16cc# 16een	.
8F 8B- 8dJ	16dd 16ff	.
.	[16b- [16ddJJ	.
8FFL	8b-] 8ddL])	.
8F 8B- 8dJ	8fJ	.
=32	=32	=32
*	*^	*
4F 4A	16a (16ccLL	4r	.
.	16b- 16dd	.	.
.	16cc 16ee-	.	.
.	(16a 16ccJJ)	.	.
4E- 4A	16gLK	16cLK	.
.	&(8a&)	8.c#J)	.
.	16gJk	.	.
*	*v	*v	*
=33	=33	=33
*^	*	*
4.A	8DL	4.d 4.f#	.
.	8AA	.	.
.	8DDJ	.	.
8D	8D	8d	.
*v	*v	*	*
=34	=34	=34
(16CLL	(16e-LL	.
16D	16f	.
16E-	16g	.
[16GJJ	16b-JJ	.
16GLL]	16b-LL	.
16G-J	16ccJ	.
8FJ)	8ddJ)	.
=35	=35	=35
(16cLL	(16ee-LL	.
16d	16ff	.
16e-	16gg	.
[16gJJ	[16bb-JJ	.
16gLL]	16bb-LL]	.
16g-J	16cccJ	.
8fJ)	8dddJ)	.
=36	=36	=36
*	*^	*
8FFL	16f (16ddLK	4r	.
.	8d 8b-	.	.
8F 8B-J	.	.	.
.	[16e- 16a [16ccJk	.	.
8FFL	16ccLL])	8e-] 8aL	.
.	16ddJ	.	.
8F 8AJ	8ccJ	8e- 8aJ	.
*	*v	*v	*
*>B1	*>B1	*>B1
=37	=37	=37
8BB- 8B-	8d 8f 8b-L	.
8r	16ffL	.
.	16ffJJ	.
8BB- (8B-L	8ff 8ggL	.
8BBn 8BnJ)	8ff 8gg#J	.
=38:|!	=38:|!	=38:|!
*>B2	*>B2	*>B2
*^	*	*
(4B-	16BB-LL	(4d 4f 4b-	>
.	16D	.	.
.	16E-	.	.
.	&(16EnJJ&)	.	.
4F	16FLL)	4e-) 4f	.
.	(16F#	.	.
.	16G	.	.
.	16AJJ)	.	.
*v	*v	*	*
=39	=39	=39
*>C	*>C	*>C
8BB- 8B-L	(16fLL	mf
.	16b-	.
8F 8B- 8dJ	16dd	.
.	[16ffJJ	.
8DL	16ffLL])	.
.	(16b-	.
8F 8B- 8dJ	16cc	.
.	16ddJJ)	.
=40	=40	=40
8E-L	(16aLL	.
.	16b-	.
8G 8B- 8e-J	16g	.
.	[16fJJ	.
8D (8dL	16fLL]	.
.	16f#	.
8D- 8d-J)	16g	.
.	16g#JJ)	.
=41	=41	=41
*	*^	*
8C 8cL	(16aLL	8.aL	.
.	16cc	.	.
8F 8A 8e-J	16ee-	.	.
.	[16ggJJ	[16a [16ee-Jk	.
8FFL	16ggLL]	4a] 4ee-]	.
.	16gg-J	.	.
8F 8A 8e-J	8ffJ)	.	.
=42	=42	=42	=42
8BB- 8B-L	16b-LL	(8.b-L	.
.	16dd	.	.
8F 8B- 8dJ	16ff	.	.
.	[16ggJJ	[16b- [16ddJk	.
8FF 8FL	16ggLL]	4b-] 4dd]	.
.	16gg-J	.	.
8F 8B- 8dJ	8ffJ)	.	.
*	*v	*v	*
=43	=43	=43
8BB-L	(16fLL	.
.	16b-	.
8F 8B- 8dJ	16dd	.
.	[16ffJJ	.
8DL	16ffLL])	.
.	(16b-	.
8F 8B- 8dJ	16cc	.
.	16ddJJ)	.
=44	=44	=44
*	*^	*
8E-L	(16aLL	4r	.
.	16b-	.	.
8G 8B- 8e-J	16g	.	.
.	[16fJJ	.	.
8D (8dL	16fLL	8fL]	<
.	16g	.	.
8BBn 8BnJ)	16g#	8fJ	.
.	16ddJJ)	.	.
=45	=45	=45	=45
8C 8cL	(16aLL	8.fL	<
.	16cc	.	.
8A 8cJ	16ff	.	.
.	16ddJJ	16b-Jk	.
8CL	16ddLL	4b-	.
.	16gg	.	.
8B- 8c 8enJ	16cc	.	.
.	16aaJJ)	.	.
*	*v	*v	*
=46	=46	=46
8F 8A 8c 8f	8cc 8ffL	.
8r	(16ee-L	>
.	16ccJJ	.
4F 4A 4c 4e-	16aLL	.
.	16a-	.
.	16g	.
.	16g-JJ)	.
=47	=47	=47
8BB-L	(16fLL	mf
.	16b-	.
8F 8B- 8dJ	16dd	.
.	[16ffJJ	.
8DL	16ffLL])	.
.	(16b-	.
8F 8B- 8dJ	16cc	.
.	16ddJJ)	.
=48	=48	=48
8E-L	(16aLL	.
.	16b-	.
8G 8B- 8e-J	16g	.
.	[16fJJ	.
8D (8dL	16fLL]	.
.	16f#	.
8D- 8d-J)	16g	.
.	16g#JJ)	.
=49	=49	=49
*	*^	*
8C 8cL	(16aLL	8.aL	.
.	16cc	.	.
8F 8A 8e-J	16ee-	.	.
.	[16ggJJ	[16a [16ee-Jk	.
8FFL	16ggLL]	4a] 4ee-]	.
.	16gg-J	.	.
8F 8A 8e-J	8ffJ)	.	.
=50	=50	=50	=50
8BB- 8B-L	16b-LL	(8.b-L	.
.	16dd	.	.
8F 8B- 8dJ	16ff	.	.
.	[16ggJJ	[16b- [16ddJk	.
8BB- 8B-L	16ggLL]	8b-] 8ddL]	.
.	16gg-J	.	.
8BBn 8BnJ	8ffJ)	8a- 8ddJ	.
=51	=51	=51	=51
8C 8cL	16ffLK	8.g 8.ccL	f
.	8ee-	.	.
8G 8c 8e-J	.	.	.
.	[16cccJk	[16cc [16ee- [16ggJk	.
8EE- 8E-L	8cccL]	4cc] 4ee-] 4gg]	.
8GG- 8G-J	8ee- 8bb- 8eee-J	.	.
=52	=52	=52	=52
8FF 8FL	4r	16dd 16bb- 16dddLK	.
.	.	8b- 8dd 8bb-	.
8F 8B- 8dJ	.	.	.
.	.	[16g 16bn [16ggJk	.
8GG 8GL	16ggLL]	8g] 8bL	.
.	16ffJ	.	.
8G 8BnJ	8ddJ	8f 8bJ	.
=53	=53	=53	=53
8CL	16ddLK	8.en 8.b-L	.
.	8cc	.	.
8G 8B- 8cJ	.	.	.
.	[16ffJk	[16f [16aJk	.
8FFL	16ffLL]	8f] 8aL]	.
.	16ddJ	.	.
8F 8AJ	8ccJ	8e- 8aJ	.
*	*v	*v	*
=54	=54	=54
8BB- 8B-L	4d 4f 4b-	.
8FJ	.	.
8BB-	8b- 8dd 8ff 8bb-	.
8r	8r	.
=55	=55	=55
*>D	*>D	*>D
*k[b-e-a-]	*k[b-e-a-]	*k[b-e-a-]
(8EE- 8E-L	16d 16g 16ddLL	p
.	16e- 16g 16ee-	.
8GG	16c 16e- 16g 16cc	.
.	[16B- [16e- [16g [16b-JJ	.
8BB-	16B-] 16e-] 16g] 16b-LL]	.
.	16f# 16an 16ff#	.
8E-J)	16g 16b- 16gg	.
.	16b- 16bb-JJ	.
=56	=56	=56
8EE- (8E-L	16dd 16gg 16dddLL	.
.	16ee- 16gg 16eee-	.
8G	16cc 16ee- 16gg 16ccc	.
.	[16b- [16ee- [16gg [16bb-JJ	.
8B-	16b-] 16ee-] 16gg] 16bb-LL]	.
.	16ff# 16aan 16fff#	.
8e-J)	16gg 16bb- 16ggg	.
.	[16ffn [16aa- [16fffnJJ	.
=57	=57	=57
8AA- 8A-L	16ff] 16aa-] 16fffLL]	.
.	16ee- 16eee-	.
8A- 8c 8e- 8fJ	16cc 16ccc	.
.	[16ee- [16eee-JJ	.
8AA- 8A-L	16ee-] 16eee-LL]	.
.	16f 16ff	.
8AAn 8AnJ	16f# 16ff#	.
.	[16g [16ggJJ	.
=58	=58	=58
*	*^	*
8BB- 8B-L	16ggLL]	8gL]	.
.	16b- 16ee-J	.	.
8AAn 8AnJ	8ff#J	8f# 8cc 8ee-J	.
8AA- 8A-L	4fn 4dd 4ffn	8b-L	.
8BBB- 8BB-J	.	8a-J	.
*	*v	*v	*
=59	=59	=59
(8EE- 8E-L	16d 16g 16ddLL	.
.	16e- 16g 16ee-	.
8GG	16c 16e- 16g 16cc	.
.	[16B- [16e- [16g [16b-JJ	.
8BB-	16B-] 16e-] 16g] 16b-LL]	.
.	16f# 16an 16ff#	.
8E-J)	16g 16b- 16gg	.
.	16b- 16bb-JJ	.
=60	=60	=60
8EE- (8E-L	16dd 16gg 16dddLL	.
.	16ee- 16gg 16eee-	.
8G	16cc 16ee- 16gg 16ccc	.
.	[16b- [16ee- [16gg [16bb-JJ	.
8B-	8b-] 8ee-] 8gg] 8bb-L]	<
8e-J)	8cc 8gg 8bb- 8cccJ	.
=61	=61	=61
8D 8dL	16dd 16gg 16bb- 16dddLL	<
.	16gg 16ggg	.
8B- 8d 8gJ	16b- 16bb-	.
.	16dd 16dddJJ	.
8FF# 8F#L	16ee- 16eee-LL	<
.	16g# 16gg#	.
8c 8d 8f#J	16an 16aan	.
.	16dd 16dddJJ	.
=62	=62	=62
8GG 8GL	16gg (16gggLL	.
.	16ddd	.
[8B- [8d [8gJ	16bb-	.
.	16ggJJ)	>
8B-] 8d] 8gL]	8ddL	.
8BB- 8B-J	8d 8a- 8ddJ	.
=63	=63	=63
(8EE- 8E-L	16d 16g (16ddLL	p
.	16e- 16g 16ee-	.
8GG	16c 16e- 16g 16cc	.
.	[16B- [16e- [16g [16b-JJ	.
8BB-	16B-] 16e-] 16g] 16b-LL])	.
.	16f# 16an (16ff#	.
8E-J)	16g 16b- 16gg	.
.	16b- 16bb-JJ)	.
=64	=64	=64
8EE- (8E-L	16dd 16gg (16dddLL	.
.	16ee- 16gg 16eee-	.
8G	16cc 16ee- 16gg 16ccc	.
.	[16b- [16ee- [16gg [16bb-JJ	.
8B-	16b-] 16ee-] 16gg] 16bb-LL])	.
.	16ff# 16aan 16fff#	<
8e-J)	16gg 16bb- 16ggg	.
.	[16bb- [16bbb-JJ	.
=65	=65	=65
8EEn 8EnL	16bb-] 16bbb-LL]	<
.	16gg 16ggg	.
8B- 8c 8enJ	16ff- 16fff-	.
.	[16dd- [16ddd-JJ	.
8CC 8CL	16dd-] 16ddd-LL]	.
.	16cc 16ccc	.
8B- 8c 8eJ	16bn 16bbn	mf
.	[16cc ([16cccJJ	.
=66	=66	=66
8FF 8FL	16cc] 16cccLL]	.
.	16dd- 16ddd-	.
8A- 8c 8fJ	16cc 16ccc	.
.	16bn 16bbnJJ	.
8AA- 8A-L	4cc 4ccc)	.
8A- 8c 8fJ	.	.
*clefG2	*	*
=67	=67	=67
8an 8cc 8ee- 8gg-	(16ggg-LL	.
.	16ddd	.
8r	16eee-	.
.	16cccJJ	.
16g-LL	4cc 4ee- 4gg- 4aan)	.
16d	.	.
16e-	.	.
16cJJ	.	.
*clefF4	*	*
=68	=68	=68
8An 8c 8e- 8g-	(16gg-LL	.
.	16dd	.
8r	16ee-	.
.	16ccJJ)	.
4G-	4c 4e- 4an	.
=69	=69	=69
*	*^	*
(4G	16B- 16e- 16b-LK	4r	.
.	8c 8e- 8cc	.	.
.	[16c 16en ([16b-Jk	.	.
4C)	16b-LL]	8c] 8eL	.
.	16a-J	.	.
.	8gJ)	8B- 8eJ	.
=70	=70	=70	=70
*	*v	*v	*
*>D1	*>D1	*>D1
*	*^	*
8CC 8CL	16gLL	8An 8e-L	.
.	16e-J	.	.
8BBB- 8BB-J	8fJ	8A- 8dJ	.
8EE- 8E-	8G 8B- 8e-L	4r	.
8r	8b-J	.	.
=71:|!	=71:|!	=71:|!	=71:|!
*	*v	*v	*
*>D2	*>D2	*>D2
*	*^	*
8CC 8CL	16gLL	8An 8e-L	.
.	16e-J	.	.
8BBB- 8BB-J	8fJ	8A- 8dJ	.
8EE- 8E-L	8G 8B- 8e-	4r	.
8BBB- 8BB-J	8r	.	.
*	*v	*v	*
=72!|:	=72!|:	=72!|:
*>E	*>E	*>E
.	(ccqLL	.
.	cc#qJJ	.
8FF 8FL	8ddL)	mf
8A- 8B- 8dJ	16b- 16dd 16ff (16bb-L	.
.	16an 16aanJJ	.
8BB-L	16b- 16dd 16ff 16bb-LL	.
.	16a 16aa	.
8A- 8B- 8dJ	16b- 16dd 16ff 16bb-	.
.	16a 16aaJJ)	.
=73	=73	=73
8FF 8FL	16b- 16dd 16ff 16bb-LK	.
.	8cc 8ccc	.
8A- 8B- 8dJ	.	.
.	[16b- [16dd [16ff [16bb-Jk	.
16FF (16FLL	4b-] 4dd] 4ff] 4bb-]	.
16BB- 16B-	.	.
16AAn 16An	.	.
16AA- 16A-JJ)	.	.
=74	=74	=74
.	(ccqLL	.
.	ddqJJ	.
8GG 8GL	8ee-L)	.
8G 8B- 8e-J	16b- 16ee- 16gg (16bb-L	.
.	16an 16aanJJ	.
8EE- 8E-L	16b- 16ee- 16gg 16bb-LL	.
.	16a 16aa	.
8G 8B- 8e-J	16b- 16ee- 16gg 16bb-	.
.	16a 16aaJJ)	.
=75	=75	=75
8GG 8GL	16b- 16ee- 16gg 16bb-LK	.
.	8cc 8ccc	.
8G 8B- 8e-J	.	.
.	[16b- [16ee- [16gg [16bb-Jk	.
(16EE- 16E-LL	4b-] 4ee-] 4gg] 4bb-]	.
16DD 16D	.	.
16EE- 16E-	.	.
16FF) 16FJJ	.	.
=76	=76	=76
.	aa-qLL	.
.	aanqJJ	.
8GG- 8G-L	8bb-L	.
8G- 8B- 8d-J	16b- 16dd- (16bb-L	.
.	16an 16aaJJ	.
8GGn 8GnL	16b- 16dd- 16bb-LL	.
.	16dd- 16ff- 16ddd-	.
8G 8B- 8d- 8fJ	16cc- 16ee- 16ccc-	.
.	16b- 16dd- 16bb-JJ)	.
=77	=77	=77
8AA- 8A-L	16b- 16dd- 16bb-LK	.
.	8a- 8cc- 8aa-	.
8E- 8A- 8c-J	.	.
.	[16a- 16cc- 16ee- [16aa-Jk	.
(16CC- 16C-LL	4a-] 4cc- 4ee- 4aa-]	.
16CCn 16Cn	.	.
16DD- 16D-	.	.
16DDn) 16DnJJ	.	.
=78	=78	=78
.	(e-qLL	.
.	fqJJ	.
8EE- 8E-L	8g-L)	.
8G- 8B- 8e-J	16g- 16ee- (16gg-L	.
.	16a- 16aa-JJ	.
4CC- 4C-	16an 16ee- 16ff 16aanLL	.
.	16g# 16gg#J	.
.	8a 8ee- 8ff 8aaJ)	.
=79	=79	=79
8BBB- 8BB-	8b- 8dd 8ff 8bb-L	.
8r	16b- 16bb-L	.
.	16b- 16bb-JJ	.
8r	8b- 8bb-	.
8BBB- 8BB-	8r	.
=80	=80	=80
.	(ccqLL	.
.	cc#qJJ	.
8FF 8FL	8ddL)	.
8A- 8B- 8dJ	16b- 16dd 16ff (16bb-L	.
.	16an 16aanJJ	.
8BB-L	16b- 16dd 16ff 16bb-LL	.
.	16a 16aa	.
8A- 8B- 8dJ	16b- 16dd 16ff 16bb-	.
.	16a 16aaJJ)	.
=81	=81	=81
8FF 8FL	16b- 16dd 16ff 16bb-LK	.
.	8cc 8ccc	.
8A- 8B- 8dJ	.	.
.	[16b- [16dd [16ff [16bb-Jk	.
16FF (16FLL	4b-] 4dd] 4ff] 4bb-]	.
16BB- 16B-	.	.
16AAn 16An	.	.
16AA- 16A-JJ)	.	.
=82	=82	=82
.	(ccqLL	.
.	ddqJJ	.
8GG 8GL	8ee-L)	.
8G 8B- 8e-J	16b- 16ee- 16gg (16bb-L	.
.	16an 16aanJJ	.
8EE- 8E-L	16b- 16ee- 16gg 16bb-LL	.
.	16a 16aa	.
8G 8B- 8e-J	16b- 16ee- 16gg 16bb-	.
.	16a 16aaJJ)	.
=83	=83	=83
8GG 8GL	16b- 16ee- 16gg 16bb-LK	.
.	8cc 8ccc	.
8G 8B- 8e-J	.	.
.	[16b- [16ee- [16gg [16bb-Jk	.
8G 8B- 8e-L	8b-] 8ee-] 8gg] 8bb-L]	.
8BBB- 8BB-J	8B- 8d 8a-J	.
=84	=84	=84
16EE- 16E-LK	16B- 16e- 16gLK	mp
8EE- 8E-	8B- 8e- 8g	.
[16DD [16DJk	[16Bn [16f [16gJk	.
8DD] 8DL]	8B] 8f] 8gL]	.
8DD- 8D-J	8B- 8f 8gJ	.
=85	=85	=85
*	*^	*
8CC 8CL	8B- 8en 8gL	4r	.
8CC 8CJ	8B- 8e 8gJ	.	.
4CC 4C	(16gLK	4An 4e-	.
.	8.fJ)	.	.
*	*v	*v	*
=86	=86	=86
16CC- 16C-LK	16A- 16e- 16fLK	.
8CC- 8C-	8A- 8e- 8f	.
[16BBB- [16BB-Jk	[16A- [16d ([16fJk	.
4BBB-] 4BB-]	8A-] 8d] 8fL]	.
.	8b-J)	.
=87	=87	=87
*>E1	*>E1	*>E1
8EE- 8E-	8G 8B- 8e-L	.
8r	16b-L	.
.	16b-JJ	.
8r	4b-	.
8BBB- 8BB-	.	.
=88:|!	=88:|!	=88:|!
*>E2	*>E2	*>E2
8EE- 8E-L	4G 4B- 4e-	.
8BB-J	.	.
8EE-	8e- 8g 8b- 8ee-	.
8r	8r	.
==	==	==
*-	*-	*-
!!!ENC: Craig Stuart Sapp
!!!END: 2004/11/28
!!!EEV: 2018/06/01
